!! 00046] TT[KA
!! NN
!!!OTL: Da zhi Shange guo heng pai
!!!ARE: Asia, China,Jiangxi, Xingguo
!! Ethnic Group: Han
!! IV, 228
!!!SCT: C0406
!!!YEM: Copyright 1995, estate of Helmut Schaffrath.
**kern
*ICvox
*Ivox
*M2/4
*k[f#c#]
*D:
{8ee
16ee
16b
4dd
=1
2ee}
=2
{16dd
16b
8b
16dd
16ee
16dd
16ee
=3
8ee
16dd
16b
8b
8r}
=4
{16a
16b
16dd
16ee
8ee
16a
16a
=5
16dd
16ee
16a
16a
16b
16a
16a
16a
=6
2a}
=7
{8ff#
8ee
16dd
16b
16dd
16ee
=8
8ee
16a
16b
4dd}
=9
{16b
16dd
16b
16dd
8a
16a
16b
=10
16a
16b
8dd
4dd}
=11
{8a
16b
16dd
16b
16dd
16b
16a
=12
16f#
16a
8a
8b
16a
16a
=13
2a}
==
!!!AGN: Shange
!! sehr typisch, auch alter Text.
!!    Wenig Verzierungen, Glissandi. +++++ Im letzten Takt der
!!    Phrase 5 ist in der Vorlage noch eine 0_ notiert; +1 nur 8tel?
!!!ONB: ESAC (Essen Associative Code) Database: CHINA_054
!!!AMT: simple duple
!!!AIN: vox
!!!EED: Helmut Schaffrath
!!!EEV: 1.0
*-
